X:227
T:
R:polska
S:Efter klockar Veström i Vallstena.
O:Gotland, Vallstena
M:3/4
L:1/16
K:C
Lc4 Le4 g2e2|fefa baga gfed|cBcd edef gfge|fefa baga g4::
a2f2 dfaf dfaf|g2e2 cege cege|a2f2 dfaf dfaf|g2e2 cege cege|
cBcd edef gfge|gfdB d2c2 c4:|

